X:1
T:Chiesi un bacio
T:Chiesi un bacio
T:Giovanni Felice Sances
T:Source : Cantate et arie a voce sola---Libro IV---Venetia---A.Vincenti---1636. Editor : André Vierendeels (04/04/15).
C:Giovanni Felice Sances
%%score 1 { ( 2 3 ) | 4 }
L:1/8
Q:1/4=96
M:3/4
K:C
V:1 treble nm="Canto" snm="C"
V:2 treble nm="BC" snm="BC"
V:3 treble 
V:4 bass 
V:1
 z2 A2 G2 | F2 E2 F2 | F2 ED EF | E4 E2 | z2 e2 d2 | c2 B2 c2 | c2 BA Bc | A4 z2 | z2 c2 _B2 | %9
w: Chie- si'un|ba- cio'e _|mel ne- * * *|ga- sti,|ma tua|boc- ca di-|ven- * * * *|to,|co- si|
w: Se'il tuo|la- bro'al- l'hor|che cru- * * *|* do,|le sue|Ro- se'a- ve|le- * * * *|no,|co- si|
w: Tut- to'il|net- ta- re|piu pu- * * *|* ro,|che nel|Ciel mai si|ver- * * * *|so,|va- go'A-|
 A2 G2 A2 | A2 GF GA | F2 A3 _B | c2 G3 A | _B2 A4 | A4 G2 | A2 E3 A | F2 A3 B | ^c2 d4 | %18
w: bel- la'in- *|dir di- * * *|no che si|fe il ne-|gar qua-|si mer-|ce che si|fe il ne-|gar qua-|
w: dol- ce ri-|so- * * * *|no, tut- to|nel ben sa-|ra me-|no cru-|del, tut- to|nel ben sa-|ra me-|
w: mor,- va- gho'A-|mor stl- * * *|le ra da|un la- bro|al- l'hot,|va- gho'A-|mor, stil- le-|ra da *|un la-|
 d2 ^cd ef | d6 :: z2 A2 A2 | d4 c2 | _B2 GA Bc | A2 A2 G2 | A3 G AB | c2 c2 d2 | e2 d2 e2 | %27
w: si mer- * * *|ce.|Fil- li|dim- mi'hor|qual sa- * * *|ra, se di-|si, _ _ _|_ se di|si gia *|
w: no cru- * * *|del.|Co- me|ca- ro|s'a- pri- * * *|ra, * *||||
w: bro al- * * *|l'hot.|Ahi che|dol- ce|n'u- sci- * * *|ra, * *||||
 e2 dc de | c6 | z2 G2 F2 | E4 A2 | F2 DE FG | E2 E2 ^F2 | G3 ^F GA | B2 B2 c2 | d2 ed cB | %36
w: mai di- * * *|ra,|fil- li|dim- mi'hor|qual sa- * * *|ra se di|si _ _ _|_ se- di|si gia * * *|
w: |||||||||
w: |||||||||
 A2 AG AB | G2 G2 A2 | B3 A Bc | d2 d2 e2 | f2 ^c4 | d2 d^c de | ^c6 :| %43
w: mai di * * *|ra, se di|si _ _ _|_ fe di|si gia|mai di- * * *|ra.|
w: |||||||
w: |||||||
V:2
 A6 | [DA]2 [DB]2 [Fd]2 | [Ec]6 | [FA]4 [DB]2 | [Ec]4 [GB]2 | A2 B2 A2 | [Gc]4 [^GB]2 | [Ec]6 | %8
 [Ac]4 [D_B]2 | [Fc]2 [DG]2 [DF]2 | [Ec]4 [EG]2 | [CA]6 | [Gc]6 | [Fd]2 [FA]4 | [DA]4 [DG]2 | %15
 [Ec]6 | [FA]6 | [^CE]2 [DF]4 | A2 ^c4 | [^FA]6 :: [FA]6 | [DF]6 | [D_B]4 [EG]2 | [CA]4 [CG]2 | %24
 [Ac]4 [DG]2 | [FA]4 [B,G]2 | G2 A4 | [DB]6 | [EG]6 | [Ec]6 | [Gc]4 [Ac]2 | [DG]6 | [Ec]4 [^FA]2 | %33
 [Gc]4 [DA]2 | [DB]4 [EA]2 | [DG]2 [Ec]2 [EG]2 | [^FA]6 | [DB]4 [DA]2 | [B,G]4 [CG]2 | %39
 [FA]4 [EA]2 | A6 | F4 G2 | [EA]6 :| %43
V:3
 F4 E2 | x6 | x6 | x6 | x6 | E2 F4 | x6 | x6 | x6 | x6 | x6 | x6 | x6 | x6 | x6 | x6 | x6 | x6 | %18
 E4 DE | x6 :: x6 | x6 | x6 | x6 | x6 | x6 | E2 D2 C2 | x6 | x6 | x6 | x6 | x6 | x6 | x6 | x6 | %35
 x6 | x6 | x6 | x6 | x6 | F2 E4 | D6 | x6 :| %43
V:4
 D,4 E,2 | F,2 G,4 | A,4 A,,2 | D,2 C,3 B,, | A,,4 B,,2 | C,2 D,4 |"^#" E,4 E,2 | A,3 _B, A,G, | %8
 F,2 F,,2 G,,2 | A,,2 _B,,4 | C,4 C,2 | F,6 | E,6 |"^6" D,2 C,4 |"^7           6" _B,,6 | A,,6 | %16
 D,6 | A,2 G,4 | A,4 A,,2 | D,6 :: D,4 C,2 | _B,,4 A,,2 | G,,4 C,2 | F,4 E,2 | F,4 G,2 | A,4 B,2 | %26
 C2 F,4 | G,4 G,,2 | C,6 | C,4 D,2 | E,4 F,2 | G,4 G,,2 | C,4 D,2 | E,4 ^F,2 | G,2 G,,2 A,,2 | %35
 B,,4 C,2 | D,4 D,2 | G,4 ^F,2 | G,4 E,2 | D,4 ^C,2 | D,2 A,4 | _B,4 B,2 | A,6 :| %43

